**kern	**kern
*staff2	*staff1
*clefF4	*clefG2
*k[f#c#g#]	*k[f#c#g#]
*M2/4	*M2/4
*A:	*A:
=-	=-
8r	8ee
=65	=65
8C#L 8E 8A	16ddd#LL
.	16eee
8C#J 8E 8A	16ddd#
.	16eeeJJ
8C#L 8E 8A	16ddd#LL
.	16eee
8C#J 8E 8A	16ddd#
.	16eeeJJ
=66	=66
4BB 4E 4G#	16dddLL
.	16ccc#
.	16bb
.	16aaJJ
4r	16gg#LL
.	16ff#
.	16ee
.	16ddJJ
=67	=67
8AAL 8E	16cc#LL
.	16ee
8AAJ 8E	16dd#
.	16eeJJ
8AAL 8E	16dd#LL
.	16ee
8AAJ 8E	16dd#
.	16eeJJ
=68	=68
4GG# 4E	16ddLL
.	16cc#
.	16b
.	16aJJ
4r	16g#LL
.	16f#
.	16e
.	16dJJ
=69	=69
8AA	16c#LL
.	16d
4A	16e
.	16f#JJ
.	16g#LL
.	16a
[8G#	16b
.	16cc#JJ
=70	=70
8G#L]	16ddLL
.	16ee
8F#'J	16ff#
.	16gg#JJ
8E'L	16aaLL
.	16bb
8D'J	16ccc#
.	16dddJJ
=71	=71
8C#'L	8eeeL
8D'J	8eeeJ
8E'L	8r
8EE'J	8dd 8gg#
=72	=72
8AAL	4cc# 4aa
8EEJ	.
8AAA	8r
==	==
*-	*-
